X: 07067
T: The LADY OF THE LAKE
C: Bob McQuillen Sept 87
B: Bob's Note Book 7 #67
%R: waltz
Z: 2020 John Chambers <jc:trillian.mit.edu>
M: 3/4
L: 1/8
K: D
A,A, \
| "D"A,2D2F2 | F4A2 | "Em"G6 | E4D2 | "A7"C4E2 | G4B2 | "D"B6 | A4FE |
| "Bm"D4F2 | A2d4 | "Em"B4G2 | E4B,2 | "A7"A,4G2 | F4E2 | "D"D6- |D4 :|
|: AA \
| "D"F2F2FF | "B"F4AB | "Em"A2G3F | G4B,B, | "A7"A,2C2E2 | G2A2BB | "D"B2A3F | "D"A4FD |
| "Bm"B,2D2F2 | F2A3B | "Em"A2G3F | G4B,B, | "A7"B,2A,2G2 | F4E2 | "D"D6- | D4 :|
%%begintext align
%% When Debra
%% Shultz and Penn Fix got married,
%% they danced to this waltz. Much love
%% to you both, and best wishes in the happy
%% years ahead.
%%endtext

%%sep 1 1 500

%%sep 1 1 500

